X: 19695
T: Jenny Dang The Weaver
R: jig
M: 6/8
K: Dmajor
|:dAA FAB|dAA efe|dBB ABd|ABd efe:|
|:dfd efg|def afe|dfd efg|fae d2f:|

